!!!!SEGMENT: s-uu--vok-mus-i-hs-21-7_forster-kaspar--ad-arma-fideles.krn
!!!cenid: 16xx:1692
!!!COM: Förster, Kaspar
!!!COM-rismID: pe30006147
!!!CDT: ~1616-1673/02/02
!!!CNT: German
!!!OTL: Ad arma fideles
!!!PDT: 1690
!!!AGN:
!!!SMS-siglum: S-Uu
!!!SMS-shelfmark: Vok. mus. i hs. 21:7
!!!SMS-shelfwork: W
!!!SMS-variant:
!!!SMS-altvar:
!!!NIFC-rismSourceID: 190008701
!!!NIFC-rismChildID: 190008701
!!!NIFC-islandoraID: none
!!!URL-pdf-islandora:
!!!URL-scan: https://www2.musik.uu.se/duben/presentationSource1.php?Select_Dnr=802 @EN{Scan on Academica} @PL{Skany w zewnętrznej bibliotece cyfrowej}
!!!ONB-nifc: UWAGA: poszczególne partie dostępne po kliknięciu w „browse part”. Informacje nt stron tytułowych w opisie na stronie lub na RISM.
!!!AIN: 1 bass 1 organ 2 soprn
!!!key: G
!!!filter-modern: sic -sq | shed -e "s/TX(.*):t=P:/tx$1:t=P:/LG" | shed -k -e "s/[<>]//g" | shed -k -e "s/#X/#/g" | shed -e "s/:rj/:RJ/L" | shed -e "s/LO:DY:(a|b|rj)/LO:dy:$1/L" | shed -e "s/-//B" | modori -m | tie -s | autostem -r | humtr -p
**kern	**fba	**kern	**text	**mod-text	**kern	**text	**mod-text	**kern	**text	**mod-text
*	*	*group1	*	*	*group1	*	*	*group1	*	*
*part4	*	*part3	*part3	*part3	*part2	*part2	*part2	*part1	*part1	*part1
*staff4	*	*staff3	*staff3	*staff3	*staff2	*staff2	*staff2	*staff1	*staff1	*staff1
*I"Organo.	*	*I"Baſso.	*	*	*I"Canto 2.	*	*	*I"Canto 1.	*	*
*mI"Organo	*	*mI"Basso	*	*	*mI"Soprano II	*	*	*mI"Soprano I	*	*
*I'org	*	*I'B	*	*	*I'S 2	*	*	*I'S 1	*	*
*Iorgan	*	*Ibass	*	*	*Isoprn	*	*	*Isoprn	*	*
*Iklav	*	*Ivox	*	*	*Ivox	*	*	*Ivox	*	*
*IGcont	*	*IGsolo	*	*	*IGsolo	*	*	*IGsolo	*	*
*clefF4	*	*clefF4	*	*	*clefC1	*	*	*clefC1	*	*
*	*	*	*	*	*mclefG2	*	*	*mclefG2	*	*
*k[]	*	*k[]	*	*	*k[]	*	*	*k[]	*	*
*mk[f#]	*	*mk[f#]	*	*	*mk[f#]	*	*	*mk[f#]	*	*
*G:	*	*G:	*	*	*G:	*	*	*G:	*	*
*M3/2	*	*M3/2	*	*	*M3/2	*	*	*M3/2	*	*
=1	=1	=1	=1	=1	=1	=1	=1	=1	=1	=1
!LO:TX:t=à . 5. C.C. è Baſso. di Casp&colon; Förſteri.:mod=	!	!LO:TX:t=à 3. C.C. è Baſs&colon; di Casp&colon; Förſter.:mod=	!	!	!LO:TX:b:t=instrom&colon;:mod=	!	!	!LO:TX:a:t=27.:mod=	!	!
!LO:TX:t=P:problem:brak 27 taktów	!	!LO:TX:a:t=35:mod=	!	!	!LO:TX:a:t=37.:mod=	!	!	!LO:TX:b:t=instrom&colon;:mod=	!	!
!	!	!	!	!	!LO:TX:t=à 3. C.C. e Baſs&colon; di Casp&colon; Förſteri.:mod=	!	!	!LO:TX:t=à 3. C.C. e Baſs&colon; di Caspar&colon; Förſteri.:mod=	!	!
1.ryy	.	00.r	.	.	00.r	.	.	00.r	.	.
=2	=2	=2	=2	=2	=2	=2	=2	=2	=2	=2
1.ryy	.	.	.	.	.	.	.	.	.	.
=3	=3	=3	=3	=3	=3	=3	=3	=3	=3	=3
1.ryy	.	.	.	.	.	.	.	.	.	.
=4	=4	=4	=4	=4	=4	=4	=4	=4	=4	=4
1.ryy	.	.	.	.	.	.	.	.	.	.
=5	=5	=5	=5	=5	=5	=5	=5	=5	=5	=5
1.ryy	.	00.r	.	.	00.r	.	.	00.r	.	.
=6	=6	=6	=6	=6	=6	=6	=6	=6	=6	=6
1.ryy	.	.	.	.	.	.	.	.	.	.
=7	=7	=7	=7	=7	=7	=7	=7	=7	=7	=7
1.ryy	.	.	.	.	.	.	.	.	.	.
=8	=8	=8	=8	=8	=8	=8	=8	=8	=8	=8
1.ryy	.	.	.	.	.	.	.	.	.	.
=9	=9	=9	=9	=9	=9	=9	=9	=9	=9	=9
1.ryy	.	00.r	.	.	00.r	.	.	00.r	.	.
=10	=10	=10	=10	=10	=10	=10	=10	=10	=10	=10
1.ryy	.	.	.	.	.	.	.	.	.	.
=11	=11	=11	=11	=11	=11	=11	=11	=11	=11	=11
1.ryy	.	.	.	.	.	.	.	.	.	.
=12	=12	=12	=12	=12	=12	=12	=12	=12	=12	=12
1.ryy	.	.	.	.	.	.	.	.	.	.
=13	=13	=13	=13	=13	=13	=13	=13	=13	=13	=13
1.ryy	.	00.r	.	.	00.r	.	.	00.r	.	.
=14	=14	=14	=14	=14	=14	=14	=14	=14	=14	=14
1.ryy	.	.	.	.	.	.	.	.	.	.
=15	=15	=15	=15	=15	=15	=15	=15	=15	=15	=15
1.ryy	.	.	.	.	.	.	.	.	.	.
=16	=16	=16	=16	=16	=16	=16	=16	=16	=16	=16
1.ryy	.	.	.	.	.	.	.	.	.	.
=17	=17	=17	=17	=17	=17	=17	=17	=17	=17	=17
1.ryy	.	00.r	.	.	00.r	.	.	00.r	.	.
=18	=18	=18	=18	=18	=18	=18	=18	=18	=18	=18
1.ryy	.	.	.	.	.	.	.	.	.	.
=19	=19	=19	=19	=19	=19	=19	=19	=19	=19	=19
1.ryy	.	.	.	.	.	.	.	.	.	.
=20	=20	=20	=20	=20	=20	=20	=20	=20	=20	=20
1.ryy	.	.	.	.	.	.	.	.	.	.
=21	=21	=21	=21	=21	=21	=21	=21	=21	=21	=21
1.ryy	.	00.r	.	.	00.r	.	.	00.r	.	.
=22	=22	=22	=22	=22	=22	=22	=22	=22	=22	=22
1.ryy	.	.	.	.	.	.	.	.	.	.
=23	=23	=23	=23	=23	=23	=23	=23	=23	=23	=23
1.ryy	.	.	.	.	.	.	.	.	.	.
=24	=24	=24	=24	=24	=24	=24	=24	=24	=24	=24
1.ryy	.	.	.	.	.	.	.	.	.	.
=25	=25	=25	=25	=25	=25	=25	=25	=25	=25	=25
1.ryy	.	00.r	.	.	00.r	.	.	0.r	.	.
=26	=26	=26	=26	=26	=26	=26	=26	=26	=26	=26
1.ryy	.	.	.	.	.	.	.	.	.	.
=27	=27	=27	=27	=27	=27	=27	=27	=27	=27	=27
1.ryy	.	.	.	.	.	.	.	1.r	.	.
=28	=28	=28	=28	=28	=28	=28	=28	=28	=28	=28
1.GG/	.	.	.	.	.	.	.	1r	.	.
.	.	.	.	.	.	.	.	2d/	Ad	Ad
=29-	=29	=29	=29	=29	=29	=29	=29	=29	=29	=29
1.GG/	.	00.r	.	.	00.r	.	.	2g/	ar-	ar-
.	.	.	.	.	.	.	.	2g/	-ma	-ma
.	.	.	.	.	.	.	.	2g/	fi-	fi-
=30	=30	=30	=30	=30	=30	=30	=30	=30	=30	=30
1.GG/	.	.	.	.	.	.	.	2g/	-de-	-de-
.	.	.	.	.	.	.	.	1d/	-les,	-les,
=31-	=31	=31	=31	=31	=31	=31	=31	=31	=31	=31
1.GG/	.	.	.	.	.	.	.	1r	.	.
.	.	.	.	.	.	.	.	2g/	ad	ad
=32	=32	=32	=32	=32	=32	=32	=32	=32	=32	=32
1.GG/	.	.	.	.	.	.	.	2b\	ar-	ar-
.	.	.	.	.	.	.	.	2b\	-ma	-ma
.	.	.	.	.	.	.	.	2b\	fi-	fi-
=33-	=33	=33	=33	=33	=33	=33	=33	=33	=33	=33
1.GG/	.	0.r	.	.	00.r	.	.	2b\	-de-	-de-
.	.	.	.	.	.	.	.	2g/	-les	-les
.	.	.	.	.	.	.	.	2b\	ad	ad
=34	=34	=34	=34	=34	=34	=34	=34	=34	=34	=34
1GG/	.	.	.	.	.	.	.	2dd\	ar-	ar-
.	.	.	.	.	.	.	.	2b\	-ma	-ma
2GG/	.	.	.	.	.	.	.	2dd\	ad	ad
=35	=35	=35	=35	=35	=35	=35	=35	=35	=35	=35
1.C/	.	1.r	.	.	.	.	.	2ee\	ar-	ar-
.	.	.	.	.	.	.	.	2cc\	-ma	-ma
.	.	.	.	.	.	.	.	2b\	fi-	fi-
=36-	=36	=36	=36	=36	=36	=36	=36	=36	=36	=36
!	!	!	!	!	!	!	!	!LO:SIC:v:t=custos g	!	!
2D/	.	2r	.	.	.	.	.	1.a\	-de-	-de-
1DD/	.	2r	.	.	.	.	.	.	.	.
.	.	2D/	Ad	Ad	.	.	.	.	.	.
!	!	!	!	!	!	!	!	!LO:LB:g=original	!	!
=37	=37	=37	=37	=37	=37	=37	=37	=37-	=37	=37
1.GG/	.	2G\	ar-	ar-	1.r	.	.	2g/	-les	-les
.	.	2G\	-ma	-ma	.	.	.	1r	.	.
.	.	2G\	fi-	fi-	.	.	.	.	.	.
=38-	=38	=38	=38	=38	=38	=38	=38	=38	=38	=38
1.GG/	.	2G\	-de-	-de-	2r	.	.	1r	.	.
.	.	1GG/	-les,	-les,	2r	.	.	.	.	.
.	.	.	.	.	2b\	Ad	Ad	2dd\	ad	ad
=39	=39	=39	=39	=39	=39	=39	=39	=39	=39	=39
1.GG/	.	2r	.	.	2b\	ar-	ar-	2dd\	ar-	ar-
.	.	2r	.	.	2g/	-ma,	-ma	2b\	-ma,	-ma
*	*	*	*ij	*ij	*	*	*	*	*	*
.	.	2G\	Ad	Ad	2r	.	.	2r	.	.
=40-	=40	=40	=40	=40	=40	=40	=40	=40	=40	=40
1.GG/	.	2B\	ar-	ar-	1.r	.	.	1.r	.	.
.	.	2B\	-ma	-ma	.	.	.	.	.	.
.	.	2B\	fi-	fi-	.	.	.	.	.	.
=41	=41	=41	=41	=41	=41-	=41	=41	=41	=41	=41
1.GG/	.	2B\	-de-	-de-	2r	.	.	2r	.	.
.	.	1G\	-les	-les	2r	.	.	2r	.	.
.	.	.	.	.	2b\	ad	ad	2dd\	ad	ad
=42-	=42	=42	=42	=42	=42	=42	=42	=42	=42	=42
1.GG/	.	2r	.	.	2b\	ar-	ar-	2dd\	ar-	ar-
.	.	2r	.	.	2g/	-ma	-ma	2b\	-ma,	-ma
*	*	*	*Xij	*Xij	*	*ij	*ij	*	*ij	*ij
.	.	2G\	ad	ad	2b\	ad	ad	2dd\	ad	ad
=43	=43	=43	=43	=43	=43	=43	=43	=43	=43	=43
1GG/	.	2G\	ar-	ar-	2b\	ar-	ar-	2dd\	ar-	ar-
.	.	2GG/	-ma	-ma	2g/	-ma	-ma	2b\	-ma	-ma
*	*	*	*	*	*	*	*	*	*Xij	*Xij
!LO:SIC:v:t=custos c	!	!	!	!	!	!	!	!	!	!
2G\	.	2G\	ad	ad	2g/	ad	ad	2dd\	ad	ad
!LO:LB:g=original	!	!	!	!	!	!	!	!	!	!
=44-	=44	=44	=44	=44	=44	=44	=44	=44	=44	=44
2c\	.	2c\	ar-	ar-	1.g\	ar-	ar-	2ee\	ar-	ar-
2B\	.	2B\	-ma	-ma	.	.	.	2dd\	-ma	-ma
2A\	.	2A\	fi-	fi-	.	.	.	2cc\	fi-	fi-
=45	=45	=45	=45	=45	=45-	=45	=45	=45	=45	=45
2B\	.	2B\	-de-	-de-	1g\	-ma	-ma	2dd\	-de-	-de-
*	*	*	*	*	*	*Xij	*Xij	*	*	*
2A\	.	2A\	-les	-les	.	.	.	2cc\	-les	-les
!	!	!LO:SIC:v:t=custos A	!	!	!	!	!	!	!	!
2G\	.	2G\	ad	ad	2g/	fi-	fi-	2b\	ad	ad
!	!	!LO:LB:g=original	!	!	!	!	!	!	!	!
=46	=46	=46	=46	=46	=46-	=46	=46	=46	=46	=46
2A\	7	2A\	ar-	ar-	(<1g\	-de-	-de-	2cc\	ar-	ar-
1D\	x 4_	2.D/	-ma	-ma	.	.	.	2.cc\	-ma	-ma
.	7 3	.	.	.	2f#X/)	.	.	.	.	.
!	!	!	!	!	!	!	!	!LO:SIC:v:t=custos g	!	!
.	.	4D/	a-	a-	.	.	.	4dd\	a-	a-
!	!	!	!	!	!	!	!	!LO:LB:g=original	!	!
=47	=47	=47	=47	=47	=47	=47	=47	=47	=47	=47
1G\	.	2G\	-mi-	-mi-	1g\	-les	-les	2b\	-mi-	-mi-
.	.	2G\	-ci	-ci	.	.	.	2b\	-ci,	-ci
2D/	.	2D/	ad	ad	2a\	ad	ad	2dd\	ad	ad
=48	=48	=48	=48	=48	=48	=48	=48	=48	=48	=48
2G\	.	2G\	ar-	ar-	2b\	ar-	ar-	1.dd\	ar-	ar-
2F#X\	.	2F#X\	-ma	-ma	2a\	-ma	-ma	.	.	.
!	!	!	!	!	!LO:SIC:v:t=custos a	!	!	!	!	!
2E\	.	2E\	fi-	fi-	2g/	fi-	fi-	.	.	.
!	!	!	!	!	!LO:LB:g=original	!	!	!	!	!
=49	=49	=49	=49	=49	=49	=49	=49	=49	=49	=49
2F#X\	.	2F#X\	-de-	-de-	2a\	-de-	-de-	1dd\	-ma	-ma
2E\	.	2E\	-les	-les	2g/	-les	-les	.	.	.
2D/	.	2D/	ad	ad	2f#X/	ad	ad	2dd\	fi-	fi-
=50	=50	=50	=50	=50	=50	=50	=50	=50	=50	=50
2E\	7	2E\	ar-	ar-	2g/	ar-	ar-	(1dd\	-de-	-de-
1AA/	x 4	2.AA/	-ma	-ma	2.g/	-ma	-ma	.	.	.
.	7 3	.	.	.	.	.	.	2cc#X\)	.	.
.	.	4AA/	a-	a-	4a\	a-	a-	.	.	.
=51	=51	=51	=51	=51	=51	=51	=51	=51	=51	=51
1D\	.	2D/	-mi-	-mi-	2f#X/	-mi-	-mi-	1dd\	-les,	-les,
.	.	2D/	-ci,	-ci	2d/	-ci	-ci	.	.	.
2BB/	.	2BB/	ad	ad	2d/	ad	ad	2dd\	ad	ad
=52-	=52	=52	=52	=52	=52	=52	=52	=52	=52	=52
2C/	.	2C/	ar-	ar-	2e/	ar-	ar-	2cc\	ar-	ar-
2C/	.	2C/	-ma	-ma	2f#X/	-ma	-ma	2.cc\	-ma	-ma
2GG/	.	2GG/	fi-	fi-	2g/	fi-	fi-	.	.	.
.	.	.	.	.	.	.	.	4b\	fi-	fi-
=53	=53	=53	=53	=53	=53	=53	=53	=53	=53	=53
1D\	.	2D/	-de-	-de-	2f#X/	-de-	-de-	2a\	-de-	-de-
.	.	2D/	-les	-les	2d/	-les	-les	2a\	-les	-les
!LO:SIC:v:t=custos C	!	!	!	!	!	!	!	!	!	!
2BB/	.	2BB/	ad	ad	2d/	ad	ad	2dd\	ad	ad
!LO:LB:g=original	!	!	!	!	!	!	!	!	!	!
=54	=54	=54	=54	=54	=54	=54	=54	=54	=54	=54
2C/	.	2C/	ar-	ar-	2e/	ar-	ar-	2cc\	ar-	ar-
2C/	.	2C/	-ma	-ma	2f#X/	-ma	-ma	2.cc\	-ma	-ma
2GG/	.	2GG/	a-	a-	2g/	a-	a-	.	.	.
.	.	.	.	.	.	.	.	4b\	a-	a-
=55	=55	=55	=55	=55	=55	=55	=55	=55	=55	=55
1.D\	.	(1D\	-mi-	-mi-	(<1g\	-mi-	-mi-	1.a\	-mi-	-mi-
!	!	!LO:SIC:v:t=custos G	!	!	!	!	!	!	!	!
.	.	2DD/)	.	.	2f#X/)	.	.	.	.	.
!	!	!LO:LB:g=original	!	!	!	!	!	!	!	!
=56	=56	=56	=56	=56	=56	=56	=56	=56	=56	=56
1GG/	.	2GG/	-ci,	-ci,	2g/	-ci	-ci,	2b\	-ci,	-ci,
.	.	2r	.	.	2r	.	.	2r	.	.
2G\	.	2G\	pa-	pa-	2r	.	.	2r	.	.
=57	=57	=57	=57	=57	=57-	=57	=57	=57-	=57	=57
2.F#X\	.	2.F#X\	-ra-	-ra-	1.r	.	.	1.r	.	.
4E\	.	4E\	-te	-te	.	.	.	.	.	.
4D\	.	4D/	vos	vos	.	.	.	.	.	.
4C/	.	4C/	ad	ad	.	.	.	.	.	.
=58	=58	=58	=58	=58	=58-	=58	=58	=58-	=58	=58
1BB/	.	2BB/	pu-	pu-	2r	.	.	2r	.	.
.	.	2BB/	-gnam	-gnam	2r	.	.	2r	.	.
!	!	!	!	!	!LO:SIC:v:t=custos a	!	!	!LO:SIC:v:t=custos c	!	!
2BB/	.	2BB/	ad	ad	2b\	pa-	pa-	2dd\	pa-	pa-
!	!	!	!	!	!LO:LB:g=original	!	!	!LO:LB:g=original	!	!
=59	=59	=59	=59	=59	=59	=59	=59	=59	=59	=59
1C/	.	2C/	pu-	pu-	2.a\	-ra-	-ra-	2.cc\	-ra-	-ra-
.	.	2C/	-gnam,	-gnam,	.	.	.	.	.	.
.	.	.	.	.	4g/	-te	-te	4b\	-te	-te
2E\	6#	2r	.	.	4f#X/	vos	vos	4a\	vos	vos
.	.	.	.	.	4e/	ad	ad	4g\	ad	ad
=60	=60	=60	=60	=60	=60	=60	=60	=60	=60	=60
1D\	.	2r	.	.	2f#X/	pu-	pu-	2a\	pu-	pu-
.	.	2r	.	.	2f#/	-gnam	-gnam	2a\	-gnam	-gnam
2D/	.	2D/	ad	ad	2g/	ad	ad	2b\	ad	ad
=61	=61	=61	=61	=61	=61	=61	=61	=61	=61	=61
1.AA/	.	2AA/	pu-	pu-	2a\	ar-	ar-	2cc\	ar-	ar-
.	.	2AA/	-gnam	-gnam	2e/	-ma	-ma	2cc\	-ma	-ma
.	.	2AA/	a-	a-	2a\	a-	a-	2b\	a-	a-
=62-	=62	=62	=62	=62	=62	=62	=62	=62	=62	=62
2D/	.	(2D\	-mi-	-mi-	(<1a\	-mi-	-mi-	1.b\	-mi-	-mi-
1E\	.	2E\	.	.	.	.	.	.	.	.
.	.	2EE/)	.	.	2g#X/)	.	.	.	.	.
=63	=63	=63	=63	=63	=63	=63	=63	=63-	=63	=63
1AA/	.	1AA/	-ci,	-ci,	1a\	-ci,	-ci,	1a\	-ci,	-ci,
2A\	.	2A\	pa-	pa-	2cc\	pa-	pa-	2r	.	.
=64	=64	=64	=64	=64	=64	=64	=64	=64	=64	=64
2.G\	.	2.G\	-ra-	-ra-	2.b\	-ra-	-ra-	1.r	.	.
!	!	!LO:TX:a:t=P:problem:# above	!	!	!	!	!	!	!	!
4F\	.	4F\	-te	-te	4a\	-te	-te	.	.	.
4E\	.	4E\	vos	vos	4g/	vos	vos	.	.	.
!LO:SIC:v:t=custos C	!	!LO:SIC:v:t=custos C	!	!	!	!	!	!	!	!
4D/	.	4D\	ad	ad	4f#X/	ad	ad	.	.	.
!LO:LB:g=original	!	!LO:LB:g=original	!	!	!	!	!	!	!	!
=65	=65	=65	=65	=65	=65	=65	=65	=65-	=65	=65
1.C/	.	2C/	pu-	pu-	2e/	pu-	pu-	1r	.	.
.	.	2C/	-gnam	-gnam	2e/	-gnam	-gnam	.	.	.
*	*	*	*	*	*	*ij	*ij	*	*	*
.	.	2C/	a-	a-	2cc\	pa-	pa-	2ee\	pa-	pa-
=66-	=66	=66	=66	=66	=66	=66	=66	=66	=66	=66
1.D\	6	1.D\	-mi-	-mi-	2.b\	-ra-	-ra-	2.dd\	-ra-	-ra-
.	.	.	.	.	4a\	-te	-te	4cc\	-te	-te
.	.	.	.	.	4g/	vos	vos	4b\	vos	vos
.	.	.	.	.	4f/	ad	ad	4a\	ad	ad
=67-	=67	=67-	=67	=67	=67	=67	=67	=67	=67	=67
1.E\	5	1E\	-ci	-ci	2e/	pu-	pu-	2g/	pug-	pug-
.	.	.	.	.	2e/	-gnam	-gnam	2g/	-nam	-nam
*	*	*	*	*	*	*Xij	*Xij	*	*	*
.	.	2E\	ad	ad	(4g/	ad	ad	(4b\	ad	ad
!	!	!	!	!	!LO:SIC:v:t=custos b	!	!	!	!	!
.	.	.	.	.	4a/)	.	.	4cc\)	.	.
!	!	!	!	!	!LO:LB:g=original	!	!	!	!	!
=68	=68	=68	=68	=68	=68	=68	=68	=68	=68	=68
2BB/	.	2BB/	ar-	ar-	2b\	ar-	ar-	2dd\	ar-	ar-
2C/	.	2C/	-ma	-ma	2a\	-ma	-ma	2cc\	-ma	-ma
2C/	.	2C/	a-	a-	2g/	a-	a-	2b\	a-	a-
=69	=69	=69	=69	=69	=69	=69	=69	=69	=69	=69
2D/	.	(2D\	-mi-	-mi-	(<1g\	-mi-	-mi-	1.a\	-mi-	-mi-
1DD/	.	1DD/)	.	.	.	.	.	.	.	.
.	.	.	.	.	2f#X/)	.	.	.	.	.
=70	=70	=70	=70	=70	=70	=70	=70	=70-	=70	=70
!	!	!	!	!	!	!	!	!LO:SIC:v:t=custos g	!	!
1GG/	.	2GG/	-ci,	-ci,	1g\	-ci,	-ci,	1g\	-ci	-ci,
.	.	2r	.	.	.	.	.	.	.	.
2G\	.	2G\	ad	ad	2r	.	.	2r	.	.
!	!	!	!	!	!	!	!	!LO:LB:g=original	!	!
=71	=71	=71	=71	=71	=71-	=71	=71	=71-	=71	=71
2F#X\	.	2F#X\	ar-	ar-	1.r	.	.	1r	.	.
1D\	.	2D/	-ma	-ma	.	.	.	.	.	.
.	.	2F#\	fi-	fi-	.	.	.	2dd\	ad	ad
=72	=72	=72	=72	=72	=72-	=72	=72	=72	=72	=72
1.G\	.	2G\	-de-	-de-	2r	.	.	2b\	ar-	ar-
.	.	2G\	-les,	-les	2r	.	.	2g/	-ma	-ma
.	.	2GG/	ad	ad	2g/	ad	ad	2b\	fi-	fi-
=73-	=73	=73	=73	=73	=73	=73	=73	=73	=73	=73
1D\	#	2D/	ar-	ar-	2f#X/	ar-	ar-	2dd\	-de-	-de-
.	.	2D/	-ma	-ma	2d/	-ma	-ma	2dd\	-les	-les
*	*	*	*	*	*	*ij	*ij	*	*	*
2D/	.	2D/	ad	ad	2f#X/	ad	ad	2dd\	ad	ad
=74-	=74	=74	=74	=74	=74	=74	=74	=74	=74	=74
1GG/	.	2GG/	ar-	ar-	2g/	ar-	ar-	2b\	ar-	ar-
.	.	2GG/	-ma	-ma	2g/	-ma	-ma	2cc\	-ma	-ma
*	*	*	*	*	*	*Xij	*Xij	*	*	*
!	!	!LO:SIC:v:t=custos AA	!	!	!	!	!	!	!	!
2GG/	.	2GG/	a-	a-	2f#X/	a-	a-	2dd\	a-	a-
!	!	!LO:LB:g=original	!	!	!	!	!	!	!	!
=75	=75	=75	=75	=75	=75	=75	=75	=75	=75	=75
1.AA/	.	1.AA/	-mi-	-mi-	1.e/	-mi-	-mi-	(1dd\	-mi-	-mi-
.	.	.	.	.	.	.	.	2cc#X\)	.	.
=76-	=76	=76-	=76	=76	=76-	=76	=76	=76	=76	=76
1D\	.	2D/	-ci,	-ci,	2f#X/	-ci,	-ci,	2dd\	-ci,	-ci,
.	.	2r	.	.	1r	.	.	1r	.	.
2D/	.	2D/	ad	ad	.	.	.	.	.	.
=77	=77	=77	=77	=77	=77	=77	=77	=77	=77	=77
1G\	.	2BB/	ar-	ar-	2r	.	.	1.r	.	.
.	.	2GG/	-ma	-ma	2r	.	.	.	.	.
!LO:SIC:v:t=custos D	!	!	!	!	!	!	!	!	!	!
2G\	.	2GG/	fi-	fi-	2g/	ad	ad	.	.	.
!LO:LB:g=original	!	!	!	!	!	!	!	!	!	!
=78-	=78	=78	=78	=78	=78	=78	=78	=78-	=78	=78
1D\	.	2D/	-de-	-de-	2f#X/	ar-	ar-	2r	.	.
.	.	2D/	-les	-les	2d/	-ma	-ma	2r	.	.
2D\	.	2D/	ad	ad	2f#X/	fi-	fi-	2dd\	ad	ad
=79	=79	=79	=79	=79	=79	=79	=79	=79	=79	=79
1G\	.	2G\	ar-	ar-	2g/	-de-	-de-	2b\	ar-	ar-
.	.	2G\	-ma	-ma	2g/	-les	-les	2g/	-ma	-ma
!	!	!	!	!	!LO:SIC:v:t=custos cc	!	!	!	!	!
2G\	.	2G\	ad	ad	2b\	ad	ad	2dd\	ad	ad
!	!	!	!	!	!LO:LB:g=original	!	!	!	!	!
=80	=80	=80	=80	=80	=80	=80	=80	=80	=80	=80
1C/	.	2C/	ar-	ar-	2cc\	ar-	ar-	2ee\	ar-	ar-
.	.	2C/	-ma	-ma	2a\	-ma	-ma	2cc\	-ma	-ma
2C/	.	2C/	a-	a-	2g/	a-	a-	2b\	a-	a-
=81-	=81	=81-	=81	=81	=81-	=81	=81	=81	=81	=81
1.D\	4	1.D\	-mi-	-mi-	(<1g\	-mi-	-mi-	1.a\	-mi-	-mi-
.	3	.	.	.	2f#X/)	.	.	.	.	.
=82-	=82	=82-	=82	=82	=82	=82	=82	=82-	=82	=82
1.GG/	.	1.GG/	-ci.	-ci.	1.g\	-ci,	-ci.	1.g\	-ci.	-ci.
=83	=83	=83	=83	=83	=83	=83	=83	=83	=83	=83
*M4/4	*	*M4/4	*	*	*M4/4	*	*	*M4/4	*	*
*met(c)	*	*met(c)	*	*	*met(c)	*	*	*met(c)	*	*
*mmet(c)	*	*mmet(c)	*	*	*mmet(c)	*	*	*mmet(c)	*	*
!	!	!	!	!	!	!	!	!LO:TX:a:t=4.	!	!
1.G\	.	4r	.	.	00r	.	.	00r	.	.
.	.	2G\	Ec-	Ec-	.	.	.	.	.	.
.	.	4G\	-ce	-ce	.	.	.	.	.	.
=84-	=84	=84	=84	=84	=84	=84	=84	=84	=84	=84
.	.	4r	.	.	.	.	.	.	.	.
.	.	8B\	ec-	ec-	.	.	.	.	.	.
!	!	!LO:SIC:v:t=custos d	!	!	!	!	!	!	!	!
.	.	8G\	-ce	-ce	.	.	.	.	.	.
!	!	!LO:LB:g=original	!	!	!	!	!	!	!	!
2F#X\	6	4.d\	ec-	ec-	.	.	.	.	.	.
.	.	8D/	-ce	-ce	.	.	.	.	.	.
=85	=85	=85	=85	=85	=85	=85	=85	=85	=85	=85
2E\	7	8E\	i-	i-	.	.	.	.	.	.
!	!	!LO:SIC:v:s=8F#	!	!	!	!	!	!	!	!
.	.	8F\	-ni-	-ni-	.	.	.	.	.	.
.	6	8G\	-mi-	-mi-	.	.	.	.	.	.
.	.	8A\	-ci	-ci	.	.	.	.	.	.
2D/	.	4F#X\	noſ-	noſ-	.	.	.	.	.	.
.	.	8F#\	-tri	-tri	.	.	.	.	.	.
.	.	8A\	ob-	ob-	.	.	.	.	.	.
=86	=86	=86	=86	=86	=86	=86	=86	=86	=86	=86
!	!	!	!	!	!	!	!	!LO:SIC:v:t=custos a	!	!
2G\	.	(8B\L	-ſi-	-ſi-	.	.	.	.	.	.
.	.	8A\J)	.	.	.	.	.	.	.	.
.	.	(8G\L	-di-	-di-	.	.	.	.	.	.
!	!	!LO:TX:a:t=P:problem:# above	!	!	!	!	!	!	!	!
.	.	8F#X\J)	.	.	.	.	.	.	.	.
2A\	.	4.E\	-an-	-an-	.	.	.	.	.	.
!	!	!LO:TX:a:t=P:problem:# above	!	!	!	!	!	!	!	!
.	.	8F#X\	-tur	-tur	.	.	.	.	.	.
!	!	!	!	!	!	!	!	!LO:LB:g=original	!	!
=87	=87	=87	=87	=87	=87	=87	=87	=87	=87	=87
2D/	.	2D/	nos	nos	2r	.	.	4r	.	.
.	.	.	.	.	.	.	.	8a\	de	de
.	.	.	.	.	.	.	.	8a\	bel-	bel-
4BB/	.	2r	.	.	8d/	de-	de-	8dd\	-la-	-la-
.	.	.	.	.	8d/	-bel-	-bel-	8dd\	-te	-te
4E\	.	.	.	.	8g/	-la-	-la-	8b\	ex-	ex-
.	.	.	.	.	8g/	-te	-te	8b\	-pu-	-pu-
=88	=88	=88	=88	=88	=88	=88	=88	=88	=88	=88
2C/	.	00r	.	.	8e/	ex-	ex-	8cc\	-gna-	-gna-
.	.	.	.	.	8e/	-pu-	-pu-	8cc\	-te	-te
.	.	.	.	.	8c/	-gna-	-gna-	8ee\	de-	de-
.	.	.	.	.	8cc\	-te	-te	8ee\	-bel-	-bel-
2D/	6	.	.	.	8b\	de-	de-	4.dd\	-la-	-la-
.	.	.	.	.	8b\	-bel-	-bel-	.	.	.
.	5	.	.	.	8b\	-la-	-la-	.	.	.
.	.	.	.	.	8a\	-te	-te	8cc\	-te	-te
=89	=89	=89	=89	=89	=89	=89	=89	=89	=89	=89
4E\	.	.	.	.	(4.a\	il-	il-	8b\	il-	il-
.	.	.	.	.	.	.	.	8b\	-los	-los
4EE/	.	.	.	.	.	.	.	8ee\	ex-	ex-
.	.	.	.	.	8g#X\)	.	.	8ee\	-pu-	-pu-
!LO:SIC:v:t=custos D	!	!	!	!	!	!	!	!	!	!
1AA/	#	.	.	.	4a\	-los,	-los,	16cc#X\LL	-gna-	-gna-
.	.	.	.	.	.	.	.	16dd\	.	.
.	.	.	.	.	.	.	.	16ee\	.	.
.	.	.	.	.	.	.	.	16dd\JJ	.	.
.	.	.	.	.	4r	.	.	16cc#X\LL	.	.
.	.	.	.	.	.	.	.	16dd\	.	.
.	.	.	.	.	.	.	.	16b\	.	.
!	!	!	!	!	!	!	!	!LO:TX:a:t=P:problem:# above	!	!
.	.	.	.	.	.	.	.	16cc#X\JJ	.	.
=90-	=90	=90	=90	=90	=90	=90	=90	=90	=90	=90
.	.	.	.	.	2r	.	.	16a\LL	.	.
.	.	.	.	.	.	.	.	16b\	.	.
.	.	.	.	.	.	.	.	16cc#X\	.	.
.	.	.	.	.	.	.	.	16b\JJ	.	.
.	.	.	.	.	.	.	.	16a\LL	.	.
.	.	.	.	.	.	.	.	16b\	.	.
.	.	.	.	.	.	.	.	16g\	.	.
!	!	!	!	!	!	!	!	!LO:SIC:v:t=custos f	!	!
.	.	.	.	.	.	.	.	16a\JJ	.	.
!LO:LB:g=original	!	!	!	!	!	!	!	!LO:LB:g=original	!	!
1D\	#	.	.	.	4r	.	.	16f#X/LL	.	.
.	.	.	.	.	.	.	.	16g/	.	.
.	.	.	.	.	.	.	.	16a/	.	.
.	.	.	.	.	.	.	.	16g/JJ	.	.
.	.	.	.	.	8a\	ex-	ex-	16f#X/LL	.	.
.	.	.	.	.	.	.	.	16g/	.	.
!	!	!	!	!	!LO:SIC:v:t=custos f	!	!	!	!	!
.	.	.	.	.	8a\	-pu-	-pu-	16e/	.	.
!	!	!	!	!	!	!	!	!LO:TX:b:t=P:problem:# below	!	!
.	.	.	.	.	.	.	.	16f#X/JJ	.	.
!	!	!	!	!	!LO:LB:g=original	!	!	!	!	!
=91-	=91	=91	=91	=91	=91	=91	=91	=91	=91	=91
.	.	.	.	.	16f#X/LL	-gna-	-gna-	4d/	.	.
.	.	.	.	.	16g/	.	.	.	.	.
.	.	.	.	.	16a/	.	.	.	.	.
.	.	.	.	.	16g/JJ	.	.	.	.	.
.	.	.	.	.	16f#X/LL	.	.	4d/	-te,	-te,
.	.	.	.	.	16g/	.	.	.	.	.
.	.	.	.	.	16e/	.	.	.	.	.
!	!	!	!	!	!LO:TX:b:t=P:problem:# below	!	!	!	!	!
.	.	.	.	.	16f#X/JJ	.	.	.	.	.
1G\	.	.	.	.	8d/	.	.	4r	.	.
.	.	.	.	.	8d/	-te,	-te	.	.	.
.	.	.	.	.	8dd\	ex-	ex-	8b\	ex-	ex-
.	.	.	.	.	8dd\	-pu-	-pu-	8b\	-pu-	-pu-
=92-	=92	=92	=92	=92	=92	=92	=92	=92	=92	=92
.	.	0r	.	.	16b\LL	-gna-	-gna-	16g\LL	-gna-	-gna-
.	.	.	.	.	16cc\	.	.	16a\	.	.
.	.	.	.	.	16dd\	.	.	16b\	.	.
.	.	.	.	.	16cc\JJ	.	.	16a\JJ	.	.
.	.	.	.	.	16b\LL	.	.	16g\LL	.	.
.	.	.	.	.	16cc\	.	.	16a\	.	.
.	.	.	.	.	16a\	.	.	16f#X\	.	.
.	.	.	.	.	16b\JJ	.	.	16g\JJ	.	.
2C/	.	.	.	.	8g/	.	.	8e/	.	.
.	.	.	.	.	8g/	-te,	-te	8e/	-te,	-te
.	.	.	.	.	8gg\	de-	de-	8ee\	de-	de-
.	.	.	.	.	8gg\	-bel-	-bel-	8ee\	-bel-	-bel-
=93	=93	=93	=93	=93	=93	=93	=93	=93	=93	=93
1C/	5	.	.	.	16ee\LL	-la-	-la-	16cc\LL	-la-	-la-
.	.	.	.	.	16ff\	.	.	16dd\	.	.
.	.	.	.	.	16gg\	.	.	16ee\	.	.
.	.	.	.	.	16ff\JJ	.	.	16dd\JJ	.	.
.	.	.	.	.	16ee\LL	.	.	16cc\LL	.	.
.	.	.	.	.	16ff\	.	.	16dd\	.	.
.	.	.	.	.	16dd\	.	.	16b\	.	.
.	.	.	.	.	16ee\JJ	.	.	16cc\JJ	.	.
.	6	.	.	.	16cc\LL	.	.	16a\LL	.	.
.	.	.	.	.	16dd\	.	.	16b\	.	.
.	.	.	.	.	16ee\	.	.	16cc\	.	.
.	.	.	.	.	16dd\JJ	.	.	16b\JJ	.	.
.	.	.	.	.	16cc\LL	.	.	16a\LL	.	.
.	.	.	.	.	16dd\	.	.	16b\	.	.
.	.	.	.	.	16b\	.	.	16g\	.	.
!	!	!	!	!	!	!	!	!LO:SIC:v:t=custos f	!	!
.	.	.	.	.	16cc\JJ	.	.	16a\JJ	.	.
!	!	!	!	!	!	!	!	!LO:LB:g=original	!	!
=94	=94	=94	=94	=94	=94	=94	=94	=94	=94	=94
4D/	#	1r	.	.	8a\	.	.	8f#X/	.	.
.	.	.	.	.	8a\	-te	-te	8f#/	-te,	-te,
4BB/	.	.	.	.	8dd\	de-	de-	8d/	de-	de-
!	!	!	!	!	!LO:SIC:v:t=custos cc	!	!	!	!	!
.	.	.	.	.	8dd\	-bel-	-bel-	8d/	-bel-	-bel-
!	!	!	!	!	!LO:LB:g=original	!	!	!	!	!
4C/	.	.	.	.	4.cc\	-la-	-la-	(8e/L	-la-	-la-
!	!	!	!	!	!	!	!	!LO:TX:b:t=P:problem:# below	!	!
.	.	.	.	.	.	.	.	8f#X/J)	.	.
4GG/	.	.	.	.	.	.	.	4g/	-te	-te
.	.	.	.	.	8b\	-te	-te	.	.	.
=95	=95	=95	=95	=95	=95	=95	=95	=95	=95	=95
!	!	!	!	!	!LO:SIC:s=(16aLL	!	!	!	!	!
2D/	.	2r	.	.	16a\LL	il-	il-	(4.g/	il-	il-
.	.	.	.	.	16g\	.	.	.	.	.
.	.	.	.	.	16a\	.	.	.	.	.
.	.	.	.	.	16b\JJ	.	.	.	.	.
!	!	!	!	!	!LO:SIC:s=4a)	!	!	!	!	!
.	.	.	.	.	4a\	.	.	.	.	.
.	.	.	.	.	.	.	.	8f#X/)	.	.
[2GG/	.	4r	.	.	4g/	-los,	-los,	4g/	-los	-los
.	.	2G\	Ec-	Ec-	4r	.	.	4r	.	.
=96-	=96	=96-	=96	=96	=96	=96	=96	=96	=96	=96
!	!	!	!	!	!LO:TX:a:t=6:mod=	!	!	!	!	!
2GG/]	.	.	.	.	00r	.	.	00r	.	.
.	.	4GG/	-ce	-ce	.	.	.	.	.	.
2G\	.	4r	.	.	.	.	.	.	.	.
.	.	8G\	ec-	ec-	.	.	.	.	.	.
.	.	8B\	ce	ce	.	.	.	.	.	.
=97	=97	=97	=97	=97	=97	=97	=97	=97	=97	=97
4E\	.	8E\	i-	i-	.	.	.	.	.	.
.	.	8G\	-ni-	-ni-	.	.	.	.	.	.
4C/	.	8C/	-mi-	-mi-	.	.	.	.	.	.
.	.	8E\	-ci	-ci	.	.	.	.	.	.
!	!	!LO:SIC:v:t=custos GG	!	!	!	!	!	!	!	!
2AA/	7	2AA/	no-	no-	.	.	.	.	.	.
!	!	!LO:LB:g=original	!	!	!	!	!	!	!	!
.	6	.	.	.	.	.	.	.	.	.
=98	=98	=98	=98	=98	=98	=98	=98	=98	=98	=98
2GG/	.	2GG/	-ſtri,	-ſtri,	.	.	.	.	.	.
2G\	.	8r	.	.	.	.	.	.	.	.
.	.	8GG/	ob-	ob-	.	.	.	.	.	.
.	.	8BB/	-si-	-si-	.	.	.	.	.	.
.	.	8C/	-di-	-di-	.	.	.	.	.	.
=99	=99	=99	=99	=99	=99	=99	=99	=99	=99	=99
2D/	.	8.D\L	-an-	-an-	.	.	.	.	.	.
.	.	16E\Jk	.	.	.	.	.	.	.	.
.	.	8.F#X\L	.	.	.	.	.	.	.	.
.	.	16G\Jk	.	.	.	.	.	.	.	.
!	!	!LO:TX:a:t=P:problem:mixedbeam	!	!	!	!	!	!	!	!
2AA/	.	8A\L	.	.	.	.	.	.	.	.
.	.	16AA/L	.	.	.	.	.	.	.	.
.	.	16BB/JJ	.	.	.	.	.	.	.	.
.	.	8C/L	.	.	.	.	.	.	.	.
.	.	8D/J	.	.	.	.	.	.	.	.
=100	=100	=100	=100	=100	=100	=100	=100	=100	=100	=100
2E\	6	8E\L	.	.	0r	.	.	0r	.	.
.	.	8F\J	.	.	.	.	.	.	.	.
.	.	8G\L	.	.	.	.	.	.	.	.
.	.	16F\L	.	.	.	.	.	.	.	.
.	.	16E\JJ	.	.	.	.	.	.	.	.
!	!	!LO:TX:a:t=P:problem:mixedbeam	!	!	!	!	!	!	!	!
2F\	.	8F\L	.	.	.	.	.	.	.	.
.	.	16FF/L	.	.	.	.	.	.	.	.
.	.	16GG/JJ	.	.	.	.	.	.	.	.
.	.	8AA/L	.	.	.	.	.	.	.	.
.	.	8BB/J	.	.	.	.	.	.	.	.
=101-	=101	=101	=101	=101	=101	=101	=101	=101	=101	=101
2C/	.	8C/L	.	.	.	.	.	.	.	.
.	.	8D/	.	.	.	.	.	.	.	.
.	.	8E/	.	.	.	.	.	.	.	.
.	.	8F/J	.	.	.	.	.	.	.	.
2G\	.	8G\L	.	.	.	.	.	.	.	.
.	.	8A\J	.	.	.	.	.	.	.	.
.	.	8B\L	.	.	.	.	.	.	.	.
.	.	16A\L	.	.	.	.	.	.	.	.
.	.	16G\JJ	.	.	.	.	.	.	.	.
=102	=102	=102	=102	=102	=102	=102	=102	=102	=102	=102
!LO:SIC:v:t=custos D	!	!	!	!	!	!	!	!	!	!
1A\	.	8A\L	.	.	2r	.	.	1r	.	.
.	.	16G\L	.	.	.	.	.	.	.	.
.	.	16F\JJ	.	.	.	.	.	.	.	.
.	.	16E\LL	.	.	.	.	.	.	.	.
.	.	16D\	.	.	.	.	.	.	.	.
.	.	16C\	.	.	.	.	.	.	.	.
!	!	!LO:SIC:v:t=custos AA	!	!	!	!	!	!	!	!
.	.	16BB\JJ	.	.	.	.	.	.	.	.
!	!	!LO:LB:g=original	!	!	!	!	!	!	!	!
.	.	8AA/L	.	.	4r	.	.	.	.	.
.	.	8GG/J	.	.	.	.	.	.	.	.
.	.	4AA/	-tur	-tur	8a\	ex-	ex-	.	.	.
.	.	.	.	.	8a\	-pu-	-pu-	.	.	.
!LO:LB:g=original	!	!	!	!	!	!	!	!	!	!
=103-	=103	=103	=103	=103	=103	=103	=103	=103	=103	=103
1D\	#	2D/	nos,	nos,	16f#X/LL	-gna-	-gna-	2r	.	.
.	.	.	.	.	16g/	.	.	.	.	.
.	.	.	.	.	16a/	.	.	.	.	.
.	.	.	.	.	16g/JJ	.	.	.	.	.
.	.	.	.	.	16f#X/LL	.	.	.	.	.
.	.	.	.	.	16g/	.	.	.	.	.
.	.	.	.	.	16e/	.	.	.	.	.
.	.	.	.	.	16f#/JJ	.	.	.	.	.
.	.	4r	.	.	16d/LL	.	.	4r	.	.
.	.	.	.	.	16e/	.	.	.	.	.
!	!	!	!	!	!LO:TX:b:t=P:problem:# below	!	!	!	!	!
.	.	.	.	.	16f#X/	.	.	.	.	.
.	.	.	.	.	16g/JJ	.	.	.	.	.
.	.	8D/	de-	de-	16a/LL	.	.	8dd\	ex-	ex-
.	.	.	.	.	16g/	.	.	.	.	.
.	.	8D/	-bel-	-bel-	16a/	.	.	8dd\	-pu-	-pu-
.	.	.	.	.	16f#X/JJ	.	.	.	.	.
=104-	=104	=104	=104	=104	=104	=104	=104	=104	=104	=104
1G\	.	8G\	-la-	-la-	8g/	.	.	16b\LL	-gna-	-gna-
.	.	.	.	.	.	.	.	16cc\	.	.
.	.	8G\	-te	-te	8g/	-te	-te	16dd\	.	.
.	.	.	.	.	.	.	.	16cc\JJ	.	.
*	*	*	*ij	*ij	*	*	*	*	*	*
.	.	8GG/	de-	de-	8g/	de-	de-	16b\LL	.	.
.	.	.	.	.	.	.	.	16cc\	.	.
.	.	8GG/	-bel-	-bel-	8g/	-bel-	-bel-	16a\	.	.
.	.	.	.	.	.	.	.	16b\JJ	.	.
.	.	4GG/	-la-	-la-	8b\	-la-	-la-	16g\LL	.	.
.	.	.	.	.	.	.	.	16a\	.	.
.	.	.	.	.	8b\	-te	-te	16b\	.	.
.	.	.	.	.	.	.	.	16a\JJ	.	.
.	.	4GG/	-te	-te	8dd\	de-	de-	16g\LL	.	.
*	*	*	*Xij	*Xij	*	*	*	*	*	*
.	.	.	.	.	.	.	.	16a\	.	.
!	!	!	!	!	!LO:SIC:v:t=custos cc	!	!	!	!	!
.	.	.	.	.	8dd\	-bel-	-bel-	16f\	.	.
.	.	.	.	.	.	.	.	16g\JJ	.	.
!	!	!	!	!	!LO:LB:g=original	!	!	!	!	!
=105	=105	=105	=105	=105	=105	=105	=105	=105	=105	=105
4C/	.	4r	.	.	8cc\	-la-	-la-	8e/	.	.
.	.	.	.	.	8cc\	-te,	-te,	8e/	-te	-te
4c\	.	8c\	ex-	ex-	4r	.	.	8g/	de-	de-
!	!	!	!	!	!	!	!	!LO:SIC:v:t=custos a	!	!
.	.	8c\	-pu-	-pu-	.	.	.	8g/	-bel-	-bel-
!	!	!	!	!	!	!	!	!LO:LB:g=original	!	!
2A\	.	16A\LL	-gna-	-gna-	4r	.	.	8a.\	-la-	-la-
.	.	16B\	.	.	.	.	.	.	.	.
.	.	16c\	.	.	.	.	.	.	-te	-te
.	.	16B\JJ	.	.	.	.	.	16a\	.	.
.	.	16A\LL	.	.	8cc\	ex-	ex-	8a\	de-	de-
.	.	16B\	.	.	.	.	.	.	.	.
.	.	16G\	.	.	8cc\	-pu-	-pu-	8a\	-bel-	-bel-
.	.	16A\JJ	.	.	.	.	.	.	.	.
=106	=106	=106	=106	=106	=106	=106	=106	=106	=106	=106
2F\	.	16F\LL	.	.	16a\LL	-gna-	-gna-	8cc\	-la-	-la-
.	.	16G\	.	.	16b\	.	.	.	.	.
.	.	16A\	.	.	16cc\	.	.	8a\	-te	-te
.	.	16G\JJ	.	.	16b\JJ	.	.	.	.	.
.	.	16F\LL	.	.	16a\LL	.	.	4r	.	.
.	.	16G\	.	.	16b\	.	.	.	.	.
.	.	16E\	.	.	16g\	.	.	.	.	.
.	.	16F\JJ	.	.	16a\JJ	.	.	.	.	.
2D/	-	8D/	.	.	8f/	.	.	4r	.	.
.	.	8D/	-te	-te	8f/	-te,	-te,	.	.	.
.	.	8D/	de-	de-	8ff\	de-	de-	8dd\	de-	de-
!	!	!LO:SIC:v:t=custos G	!	!	!	!	!	!	!	!
.	.	8D/	-bel-	-bel-	8ee\	-bel-	-bel-	8cc\	-bel-	-bel-
!	!	!LO:LB:g=original	!	!	!	!	!	!	!	!
=107	=107	=107	=107	=107	=107	=107	=107	=107	=107	=107
4G\	.	8G\	-la-	-la-	8dd\	-la-	-la-	8b\	-la-	-la-
.	.	8G\	-te	-te	8dd\	-te,	-te,	8b\	-te	-te
4E\	.	8E\	ex-	ex-	8ee\	ex-	ex-	8cc\	ex-	ex-
.	.	8E\	-pu-	-pu-	8dd\	-pu-	-pu-	8b\	-pu-	-pu-
4F\	.	16F\LL	-gna-	-gna-	4cc\	-gna-	-gna-	4.a\	-gna-	-gna-
.	.	16G\	.	.	.	.	.	.	.	.
.	.	16F\	.	.	.	.	.	.	.	.
.	.	16E\JJ	.	.	.	.	.	.	.	.
4D/	.	16D\LL	.	.	(8dd\L	-te	-te	.	.	.
.	.	16E\	.	.	.	.	.	.	.	.
.	.	16F\	.	.	8cc\J)	.	.	8a\	-te	-te
.	.	16D\JJ	.	.	.	.	.	.	.	.
=108	=108	=108	=108	=108	=108	=108	=108	=108	=108	=108
2E\	.	(4E\	.	.	16b\LL	il-	il-	8a\	il-	il-
.	.	.	.	.	16a\	.	.	.	.	.
.	.	.	.	.	16b\	.	.	8g#X/	-los	-los
.	.	.	.	.	16cc\JJ	.	.	.	.	.
.	.	4EE/)	.	.	4b\	.	.	8ee\	ex-	ex-
.	.	.	.	.	.	.	.	8ee\	-pu-	-pu-
2A\	#	4AA/	-te,	-te,	4a\	-los	-los	16cc#X\LL	-gna-	-gna-
.	.	.	.	.	.	.	.	16dd\	.	.
.	.	.	.	.	.	.	.	16ee\	.	.
.	.	.	.	.	.	.	.	16dd\JJ	.	.
.	.	8A\	ex-	ex-	8a\	de-	de-	16cc#X\LL	.	.
.	.	.	.	.	.	.	.	16dd\	.	.
.	.	8A\	-pu-	-pu-	8a\	-bel-	-bel-	16b\	.	.
!	!	!	!	!	!	!	!	!LO:SIC:v:t=custos a	!	!
.	.	.	.	.	.	.	.	16cc#\JJ	.	.
!	!	!	!	!	!	!	!	!LO:LB:g=original	!	!
=109	=109	=109	=109	=109	=109	=109	=109	=109	=109	=109
2F#X\	6	16F#X\LL	-gna-	-gna-	8dd\	-la-	-la-	16a\LL	.	.
.	.	16G\	.	.	.	.	.	16b\	.	.
!	!	!	!	!	!LO:SIC:v:t=custos dd	!	!	!	!	!
.	.	16A\	.	.	8dd\	-te	-te	16cc\	.	.
.	.	16G\JJ	.	.	.	.	.	16b\JJ	.	.
.	.	16F#X\LL	.	.	4r	.	.	16a\LL	.	.
.	.	16G\	.	.	.	.	.	16b\	.	.
.	.	16E\	.	.	.	.	.	16g\	.	.
.	.	16F#\JJ	.	.	.	.	.	16a\JJ	.	.
!	!	!	!	!	!LO:LB:g=original	!	!	!	!	!
2D/	.	16D\LL	.	.	4r	.	.	16f#X/LL	.	.
.	.	16E\	.	.	.	.	.	16g/	.	.
.	.	16F#X\	.	.	.	.	.	16a/	.	.
.	.	16E\JJ	.	.	.	.	.	16g/JJ	.	.
.	.	16D/LL	.	.	8dd\	ex-	ex-	8f#X/	.	.
.	.	16C/	.	.	.	.	.	.	.	.
.	.	16BB/	.	.	8dd\	-pu-	-pu-	8f#/	-te	-te
.	.	16AA/JJ	.	.	.	.	.	.	.	.
=110	=110	=110	=110	=110	=110	=110	=110	=110	=110	=110
2G\	.	4.GG/	.	.	16b\LL	-gna-	-gna-	8g/	il-	il-
.	.	.	.	.	16cc\	.	.	.	.	.
.	.	.	.	.	16dd\	.	.	8g/	-los	-los
.	.	.	.	.	16cc\JJ	.	.	.	.	.
.	.	.	.	.	16b\LL	.	.	8dd\	ex-	ex-
.	.	.	.	.	16cc\	.	.	.	.	.
.	.	8GG/	-te	-te	16a\	.	.	8dd\	-pu-	-pu-
.	.	.	.	.	16b\JJ	.	.	.	.	.
2GG/	.	8GG/	il-	il-	16g\LL	.	.	16b\LL	-gna-	-gna-
.	.	.	.	.	16a\	.	.	16cc\	.	.
!	!	!LO:SIC:v:t=custos GG	!	!	!	!	!	!	!	!
.	.	8GG/	-los	-los	16b\	.	.	16dd\	.	.
.	.	.	.	.	16a\JJ	.	.	16cc\JJ	.	.
!	!	!LO:LB:g=original	!	!	!	!	!	!	!	!
.	.	8G\	de-	de-	16g\LL	.	.	16b\LL	.	.
.	.	.	.	.	16a\	.	.	16cc\	.	.
.	.	8G\	-bel-	-bel-	16f#X\	.	.	16a\	.	.
.	.	.	.	.	16g\JJ	.	.	16b\JJ	.	.
=111-	=111	=111	=111	=111	=111	=111	=111	=111	=111	=111
1C/	.	8c\	-la-	-la-	8e/	.	.	8g/	.	.
.	.	8c\	-te	-te	8e/	-te	-te	8g/	-te,	-te,
*	*	*	*ij	*ij	*	*	*	*	*	*
.	.	8C/	de-	de-	8ee\	ex-	ex-	8gg\	ex-	ex-
.	.	8C/	-bel-	-bel-	8ee\	-pu-	-pu-	8gg\	-pu-	-pu-
.	.	4C/	-la-	-la-	16cc\LL	-gna-	-gna-	16ee\LL	-gna-	-gna-
.	.	.	.	.	16dd\	.	.	16ff\	.	.
.	.	.	.	.	16ee\	.	.	16gg\	.	.
.	.	.	.	.	16dd\JJ	.	.	16ff\JJ	.	.
.	.	4C/	-te	-te	16cc\LL	.	.	16ee\LL	.	.
*	*	*	*Xij	*Xij	*	*	*	*	*	*
.	.	.	.	.	16dd\	.	.	16ff\	.	.
.	.	.	.	.	16b\	.	.	16dd\	.	.
.	.	.	.	.	16cc\JJ	.	.	16ee\JJ	.	.
=112	=112	=112	=112	=112	=112	=112	=112	=112	=112	=112
2C/	.	4r	.	.	16a\LL	.	.	16cc\LL	.	.
.	.	.	.	.	16b\	.	.	16dd\	.	.
.	.	.	.	.	16cc\	.	.	16ee\	.	.
!	!	!	!	!	!	!	!	!LO:SIC:v:t=custos c	!	!
.	.	.	.	.	16b\JJ	.	.	16dd\JJ	.	.
!	!	!	!	!	!	!	!	!LO:LB:g=original	!	!
.	.	8C/	de-	de-	16a\LL	.	.	16cc\LL	.	.
.	.	.	.	.	16b\	.	.	16dd\	.	.
.	.	8C/	-bel-	-bel-	16g\	.	.	16b\	.	.
.	.	.	.	.	16a\JJ	.	.	16cc\JJ	.	.
4D/	.	8D/	-la-	-la-	8f#X/	.	.	8a\	.	.
.	.	8D/	-te	-te	8f#/	-te	-te	8a\	-te	-te
*	*	*	*ij	*ij	*	*	*	*	*	*
4BB/	.	8BB/	de-	de-	8d/	de-	de-	8dd\	de-	de-
!	!	!	!	!	!LO:SIC:v:t=custos e	!	!	!	!	!
.	.	8BB/	-bel-	-bel-	8d/	-bel-	-bel-	8dd\	-bel-	-bel-
!	!	!	!	!	!LO:LB:g=original	!	!	!	!	!
=113	=113	=113	=113	=113	=113	=113	=113	=113	=113	=113
!	!	!	!	!	!LO:SIC:s=(8eL	!	!	!	!	!
4C/	.	4C/	-la-	-la-	(8e/	-la-	-la-	4.cc\	-la-	-la-
!	!	!	!	!	!LO:TX:b:t=P:problem:# below	!	!	!	!	!
!	!	!	!	!	!LO:SIC:s=8f#)J	!	!	!	!	!
.	.	.	.	.	8f#X/)	.	.	.	.	.
4GG/	.	4GG/	-te	-te	4g/	-te	-te	.	.	.
*	*	*	*Xij	*Xij	*	*	*	*	*	*
.	.	.	.	.	.	.	.	8b\	-te	-te
2D/	.	2D/	il-	il-	(4.g/	il-	il-	2a\	il-	il-
.	.	.	.	.	8f#X/)	.	.	.	.	.
=114	=114	=114	=114	=114	=114-	=114	=114	=114	=114	=114
!LO:TX:t=P:problem:brak 4 taktów	!	!	!	!	!	!	!	!	!	!
1GG@	.	1GG/	-los	-los.	1g\	-los.	-los.	1b\	-los,	-los.
=115	=115	=115	=115	=115	=115-	=115	=115	=115	=115	=115
!	!	!LO:TX:a:t=3.:mod=	!	!	!LO:TX:a:t=3.:mod=	!	!	!LO:TX:a:t=3.:mod=	!	!
1ryy	.	0r	.	.	0r	.	.	0r	.	.
=116	=116	=116	=116	=116	=116	=116	=116	=116	=116	=116
1ryy	.	.	.	.	.	.	.	.	.	.
=117	=117	=117	=117	=117	=117	=117	=117	=117	=117	=117
1ryy	.	1r	.	.	1r	.	.	1r	.	.
=118	=118	=118	=118	=118	=118	=118	=118	=118	=118	=118
*M3/2	*	*M3/2	*	*	*M3/2	*	*	*M3/2	*	*
!	!	!	!	!	!LO:TX:a:t=2:mod=	!	!	!LO:TX:a:t=1:mod=	!	!
1GG/	.	2r	.	.	0.r	.	.	1.r	.	.
.	.	2r	.	.	.	.	.	.	.	.
!LO:SIC:v:t=custos D	!	!	!	!	!	!	!	!	!	!
2G\	.	2G\	ad	Ad	.	.	.	.	.	.
!LO:LB:g=original	!	!	!	!	!	!	!	!	!	!
=119-	=119	=119	=119	=119	=119	=119	=119	=119	=119	=119
2F#X\	.	2F#X\	ar-	ar-	.	.	.	1r	.	.
1D\	.	2D/	-ma	-ma	.	.	.	.	.	.
*	*	*	*ij	*ij	*	*	*	*	*	*
.	.	2F#X\	ad	ad	.	.	.	2dd\	ad	Ad
=120	=120	=120	=120	=120	=120	=120	=120	=120	=120	=120
1.G\	.	2G\	ar-	ar-	2r	.	.	2b\	ar-	ar-
.	.	2G\	-ma	-ma	2r	.	.	2g/	-ma	-ma
*	*	*	*Xij	*Xij	*	*	*	*	*	*
!	!	!LO:SIC:v:t=custos D	!	!	!	!	!	!	!	!
.	.	2GG/	ad	ad	2g/	Ad	Ad	2b\	ad	ad
!	!	!LO:LB:g=original	!	!	!	!	!	!	!	!
=121-	=121	=121	=121	=121	=121	=121	=121	=121	=121	=121
1.D\	.	2D/	ar-	ar-	2f#X/	ar-	ar-	2dd\	ar-	ar-
.	.	2D/	-ma	-ma	2d/	-ma	-ma	2dd\	-ma	-ma
*	*	*	*ij	*ij	*	*ij	*ij	*	*ij	*ij
.	.	2D/	ad	ad	2f#X/	ad	ad	2dd\	ad	ad
=122	=122	=122	=122	=122	=122	=122	=122	=122	=122	=122
1GG/	.	2GG/	ar-	ar-	2g/	ar-	ar-	2b\	ar-	ar-
.	.	2GG/	-ma	-ma	2g/	-ma	-ma	2cc\	-ma	-ma
*	*	*	*Xij	*Xij	*	*Xij	*Xij	*	*Xij	*Xij
2GG/	.	2GG/	a-	a-	2f#X/	fi-	fi-	2dd\	fi-	fi-
=123-	=123	=123	=123	=123	=123	=123	=123	=123	=123	=123
1.AA/	.	1.AA/	-mi-	-mi-	1.e/	-de-	-de-	(1dd\	-de-	-de-
.	.	.	.	.	.	.	.	2cc#X\)	.	.
=124	=124	=124-	=124	=124	=124-	=124	=124	=124	=124	=124
1D\	.	2D/	-ci,	-ci,	2f#X/	-les,	-les,	2dd\	-les	-les,
!	!	!	!	!	!	!	!	!LO:SIC:v:t=custos dd	!	!
.	.	2r	.	.	2r	.	.	2r	.	.
2D/	.	2D/	ad	ad	2r	.	.	2r	.	.
!	!	!	!	!	!	!	!	!LO:PB:g=original	!	!
=125-	=125	=125	=125	=125	=125	=125	=125	=125-	=125	=125
2BB/	.	2BB/	ar-	ar-	2r	.	.	1.r	.	.
1GG/	.	2GG/	-ma	-ma	2r	.	.	.	.	.
.	.	2GG/	fi-	fi-	2g/	ad	ad	.	.	.
=126	=126	=126	=126	=126	=126	=126	=126	=126-	=126	=126
1.D\	.	2D/	-de-	-de-	2f#X/	ar-	ar-	2r	.	.
.	.	2D/	-les	-les	2d/	-ma	-ma	2r	.	.
.	.	2D/	ad	ad	2f#X/	fi-	fi-	2dd\	ad	ad
=127-	=127	=127	=127	=127	=127	=127	=127	=127	=127	=127
1GG/	.	2G\	ar-	ar-	2g/	-de-	-de-	2b\	ar-	ar-
.	.	2G\	-ma	-ma	2g/	-les	-les	2g/	-ma	-ma
!	!	!	!	!	!LO:SIC:v:t=custos cc	!	!	!	!	!
2G\	.	2G\	ad	ad	2b\	ad	ad	2dd\	ad	ad
!	!	!	!	!	!LO:LB:g=original	!	!	!	!	!
=128	=128	=128	=128	=128	=128	=128	=128	=128	=128	=128
1.C/	.	2C/	ar-	ar-	2cc\	ar-	ar-	2ee\	ar-	ar-
.	.	2C/	-ma	-ma	2a\	-ma	-ma	2cc\	-ma	-ma
.	.	2C/	a-	a-	2g/	a-	a-	2b\	a-	a-
=129-	=129	=129-	=129	=129	=129	=129	=129	=129	=129	=129
1.D\	.	1.D\	-mi-	-mi-	(<1g\	-mi-	-mi-	1.a\	-mi-	-mi-
.	.	.	.	.	2f#X/)	.	.	.	.	.
=130-	=130	=130-	=130	=130	=130-	=130	=130	=130-	=130	=130
1.GG/	.	1.GG/	-ci.	-ci.	1.g\	-ci,	-ci.	1.b\	-ci,	-ci.
=131	=131	=131	=131	=131	=131	=131	=131	=131	=131	=131
*M4/4	*	*M4/4	*	*	*M4/4	*	*	*M4/4	*	*
*met(c)	*	*met(c)	*	*	*met(c)	*	*	*met(c)	*	*
!	!	!LO:TX:a:t=9.:mod=	!	!	!	!	!	!	!	!
2E\	.	00r	.	.	4g#X/	Do-	Do-	4b\	Do-	Do-
.	.	.	.	.	8g#/	-mi-	-mi-	8b\	-mi-	-mi-
.	.	.	.	.	8g#/	-ne	-ne	8b\	-ne	-ne
*	*	*	*	*	*	*ij	*ij	*	*ij	*ij
2D#X/	5-	.	.	.	4.a\	Do-	Do-	4.b\	Do-	Do-
.	.	.	.	.	8a\	-mi-	-mi-	8b\	-mi-	-mi-
=132	=132	=132	=132	=132	=132	=132	=132	=132	=132	=132
1E\	#	.	.	.	4g#X/	-ne	-ne	4b\	-ne	-ne
*	*	*	*	*	*	*Xij	*Xij	*	*Xij	*Xij
.	.	.	.	.	4r	.	.	8r	.	.
.	.	.	.	.	.	.	.	8b\	de	de
.	.	.	.	.	4r	.	.	4ee\	coe-	coe-
.	.	.	.	.	8r	.	.	4ee\	-lo	-lo
.	.	.	.	.	8e/	de	de	.	.	.
=133-	=133	=133	=133	=133	=133	=133	=133	=133	=133	=133
2C#X/	.	.	.	.	4a\	coe-	coe-	4r	.	.
!	!	!	!	!	!	!	!	!LO:SIC:v:t=custos dd	!	!
.	.	.	.	.	8a\	-lo	-lo	4ee\	spe-	spe-
.	.	.	.	.	8g\	spe-	spe-	.	.	.
!LO:SIC:v:t=custos E	!	!	!	!	!	!	!	!LO:LB:g=original	!	!
2D/	#	.	.	.	(8f#X/L	-ra-	-ra-	4dd\	-ra-	-ra-
.	.	.	.	.	8g/J)	.	.	.	.	.
.	.	.	.	.	8a\	-mus	-mus	8dd\	-m(us)	-mus
.	.	.	.	.	8a\	au-	au-	8cc\	au-	au-
!LO:LB:g=original	!	!	!	!	!	!	!	!	!	!
=134	=134	=134	=134	=134	=134	=134	=134	=134	=134	=134
2E\	.	.	.	.	4.a\	-xi-	-xi-	4.b\	-xi-	-xi-
.	.	.	.	.	8g#X/	-li-	-li-	8a\	-li-	-li-
2AA/	-	.	.	.	4a\	-um	-um	4a\	-um	-um
!	!	!	!	!	!	!	!	!LO:TX:t=P:problem:nuta przekreślona	!	!
.	.	.	.	.	2a\	par-	par-	2cc\	par-	par-
=135	=135	=135	=135	=135	=135-	=135	=135	=135-	=135	=135
2E\	.	00r	.	.	.	.	.	.	.	.
.	.	.	.	.	8gny/	-ce	-ce	8b\	-ce	-ce
!	!	!	!	!	!LO:SIC:v:t=custos f	!	!	!	!	!
.	.	.	.	.	8g/	o	o	8b\	o	o
!	!	!	!	!	!LO:PB:g=original	!	!	!	!	!
4F#X\	.	.	.	.	4f#X/	bo-	bo-	4a\	bo-	bo-
8G\L	.	.	.	.	4e/	-ne	-ne	4g/	-ne	-ne
8A\J	.	.	.	.	.	.	.	.	.	.
=136	=136	=136	=136	=136	=136	=136	=136	=136	=136	=136
2B\	.	.	.	.	2e/	Je-	Je-	2f#X/	Je-	Je-
2BB/	.	.	.	.	4d#X/	-su,	-su,	8g/	-su,	-su,
.	.	.	.	.	.	.	.	8b\	o	o
.	.	.	.	.	4r	.	.	8a\	bo-	bo-
.	.	.	.	.	.	.	.	8b\	-ne	-ne
=137	=137	=137	=137	=137	=137	=137	=137	=137	=137	=137
2E\	.	.	.	.	8r	.	.	4g#X/	Je-	Je-
.	.	.	.	.	8ee\	o	o	.	.	.
.	.	.	.	.	8dd\	bo-	bo-	4g#/	-su	-su
.	.	.	.	.	8ee\	-ne	-ne	.	.	.
2A\	.	.	.	.	4cc#X\	Je-	Je-	8r	.	.
*	*	*	*	*	*	*	*	*	*ij	*ij
.	.	.	.	.	.	.	.	8a\	o	o
.	.	.	.	.	4cc#\	-su	-su	8g#\	bo-	bo-
.	.	.	.	.	.	.	.	8a\	-ne	-ne
=138	=138	=138	=138	=138	=138	=138	=138	=138	=138	=138
2D/	.	.	.	.	8r	.	.	4f#X/	Je-	Je-
*	*	*	*	*	*	*ij	*ij	*	*	*
.	.	.	.	.	8dd\	o	o	.	.	.
!	!	!	!	!	!	!	!	!LO:SIC:v:t=custos g	!	!
.	.	.	.	.	8cc\	bo-	bo-	4f#/	-su	-su
.	.	.	.	.	8dd\	-ne	-ne	.	.	.
*	*	*	*	*	*	*	*	*	*Xij	*Xij
!	!	!	!	!	!	!	!	!LO:LB:g=original	!	!
4G\	.	.	.	.	8b\	Je-	Je-	4.g/	par-	par-
.	.	.	.	.	8b\	-su	-su	.	.	.
*	*	*	*	*	*	*Xij	*Xij	*	*	*
4C/	.	.	.	.	8ee\	par-	par-	.	.	.
.	.	.	.	.	8a\	-ce	-ce	8g/	-ce	-ce
=139	=139	=139	=139	=139	=139	=139	=139	=139	=139	=139
2D/	.	1r	.	.	2a\	par-	par-	(4.g/	par-	par-
!	!	!	!	!	!	!	!	!LO:TX:t=P:problem:♯below	!	!
.	.	.	.	.	.	.	.	8f#X/)	.	.
2GG/	.	.	.	.	4b\	-ce,	-ce,	8g/	-ce	-ce,
.	.	.	.	.	.	.	.	8d/	qui	qui
.	.	.	.	.	4r	.	.	8g/	non	non
.	.	.	.	.	.	.	.	8g/	vis	vis
!	!	!LO:P0B:g=original	!	!	!	!	!	!	!	!
=140	=140	=140	=140	=140	=140	=140	=140	=140	=140	=140
2D/	-	2r	.	.	8r	.	.	8f/	mor-	mor-
.	.	.	.	.	8a\	qui	qui	8e/	-tem	-tem
.	.	.	.	.	8dd\	non	non	8f/	pec-	pec-
.	.	.	.	.	8dd\	vis	vis	8d/	-ca-	-ca-
4AA/	.	8r	.	.	8cc\	mor-	mor-	8e/L	-to-	-to-
!	!	!	!	!	!LO:SIC:v:t=custos cc	!	!	!	!	!
.	.	8AA/	qui	qui	8b\	-tem	-tem	8d/	.	.
!	!	!	!	!	!LO:LB:g=original	!	!	!	!	!
4A\	.	8A\	non	non	8cc\	pec-	pec-	8e/	.	.
.	.	8A\	vis	vis	8a\	-ca-	-ca-	8f/J	.	.
=141	=141	=141	=141	=141	=141	=141	=141	=141	=141	=141
8E\L	.	8E\	mor-	mor-	8b\	-to-	-to-	4g/	-ris	-ris
8F\	.	8F\	-tem	-tem	8b\	-ris	-ris	.	.	.
8G\	.	8G\	pec-	pec-	4b\	pec-	pec-	2g/	pec-	pec-
8E\J	.	8E\	-ca-	-ca-	.	.	.	.	.	.
2F\	.	8F\L	-to-	-to-	2a\	-ca-	-ca-	.	.	.
.	.	8G\	.	.	.	.	.	.	.	.
.	.	8A\	.	.	.	.	.	4f/	-ca-	-ca-
.	.	8B\J	.	.	.	.	.	.	.	.
=142	=142	=142	=142	=142	=142	=142	=142	=142	=142	=142
2C/	.	8c\	-ris	-ris,	4g/	-to-	-to-	4f/	-to-	-to-
.	.	4C/	ſed	ſed	.	.	.	.	.	.
.	.	.	.	.	4g/	-ris,	-ris,	4e/	-ris,	-ris,
.	.	8E\	ut	ut	.	.	.	.	.	.
2G\	.	16G\LL	con-	con-	2r	.	.	8r	.	.
.	.	16A\	.	.	.	.	.	.	.	.
.	.	16B\	.	.	.	.	.	4g/	sed	sed
.	.	16A\JJ	.	.	.	.	.	.	.	.
.	.	16G\LL	.	.	.	.	.	.	.	.
.	.	16G\	.	.	.	.	.	.	.	.
.	.	16F\	.	.	.	.	.	8b\	ut	ut
.	.	16E\JJ	.	.	.	.	.	.	.	.
=143	=143	=143	=143	=143	=143	=143	=143	=143	=143	=143
*	*	*clefF3	*	*	*	*	*	*	*	*
2D/	.	16F\LL	.	.	8r	.	.	16dd\LL	con-	con-
.	.	16G\	.	.	.	.	.	16ee\	.	.
.	.	16A\	.	.	4d/	sed	sed	16ff\	.	.
!	!	!	!	!	!	!	!	!LO:SIC:v:t=custos dd	!	!
.	.	16G\JJ	.	.	.	.	.	16ee\JJ	.	.
!	!	!	!	!	!	!	!	!LO:LB:g=original	!	!
.	.	(16F/LL	-ver-	-ver-	.	.	.	[16dd\LL	-ver-	-ver-
.	.	16F/)	.	.	.	.	.	16dd\]	.	.
.	.	16E/	.	.	8f/	ut	ut	16cc\	.	.
.	.	16D/JJ	.	.	.	.	.	16b\JJ	.	.
*	*	*clefF4	*	*	*	*	*	*	*	*
4.AA/	.	4AA/	-ta-	-ta-	16a\LL	con-	con-	4cc\	-ta-	-ta-
.	.	.	.	.	16b\	.	.	.	.	.
.	.	.	.	.	16cc\	.	.	.	.	.
.	.	.	.	.	16b\JJ	.	.	.	.	.
.	.	8AA/	-tur	-tur	(16a\LL	-ver-	-ver-	4cc\	-tur,	-tur
.	.	.	.	.	16a\)	.	.	.	.	.
!LO:SIC:v:t=custos C	!	!	!	!	!	!	!	!	!	!
8BB/	.	8BB/	et	et	16g\	.	.	.	.	.
.	.	.	.	.	16f\JJ	.	.	.	.	.
!LO:LB:g=original	!	!LO:LB:g=original	!	!	!	!	!	!	!	!
=144	=144	=144	=144	=144	=144	=144	=144	=144	=144	=144
4C/	.	8C/	vi-	vi-	8e/	-ta-	-ta-	4r	.	.
.	.	8C/	-vat,	-vat	8e/	-tur	-tur	.	.	.
4E\	.	8E\	con-	con-	8ee\	con-	con-	8gg\	con-	con-
.	.	8E\	-ver-	-ver-	8ee\	-ver-	-ver-	8gg\	-ver-	-ver-
4.F\	.	4F\	-ta-	-ta-	4dd\	-ta-	-ta-	4ff\	-ta-	-ta-
.	.	8F#X\	-tur	-tur	8cc\	-tur	-tur	8ee\	-tur	-tur
8F#X\	.	8F#\	et	et	8cc\	et	et	8dd\	et	et
=145	=145	=145	=145	=145	=145	=145	=145	=145	=145	=145
!	!	!	!	!	!	!	!	!LO:SIC:s=(16ddLL	!	!
4G\	.	(4G\	vi-	vi-	(4.cc\	vi-	vi-	16dd\LL	vi-	vi-
.	.	.	.	.	.	.	.	16cc\	.	.
.	.	.	.	.	.	.	.	16dd\	.	.
.	.	.	.	.	.	.	.	16ee\JJ	.	.
!	!	!	!	!	!	!	!	!LO:SIC:s=4dd)	!	!
4GG/	.	4GG/)	.	.	.	.	.	4dd\	.	.
!	!	!	!	!	!LO:SIC:v:t=custos cc	!	!	!	!	!
.	.	.	.	.	8b\)	.	.	.	.	.
!	!	!	!	!	!LO:LB:g=original	!	!	!	!	!
2C/	.	4C/	-vat,	-vat,	8cc\	-vat	-vat,	4ee\	-vat,	-vat,
.	.	.	.	.	8g/	qui	qui	.	.	.
.	.	4r	.	.	8cc\	non	non	4r	.	.
.	.	.	.	.	8cc\	vis	vis	.	.	.
=146	=146	=146	=146	=146	=146	=146	=146	=146	=146	=146
!	!	!LO:TX:a:t=2.:mod=	!	!	!	!	!	!	!	!
2GG/	.	0r	.	.	8b\	mor-	mor-	8r	.	.
.	.	.	.	.	8a\	-tem	-tem	8dd\	qui	qui
.	.	.	.	.	8b\	pec-	pec-	8gg\	non	non
.	.	.	.	.	8g/	-ca-	-ca-	8gg\	vis	vis
2D/	-	.	.	.	8a\L	-to-	-to-	8ff\	mor-	mor-
.	.	.	.	.	8g\	.	.	8ee\	-tem	-tem
.	.	.	.	.	8a\	.	.	8ff\	pec-	pec-
.	.	.	.	.	8b\J	.	.	8dd\	-ca-	-ca-
=147	=147	=147	=147	=147	=147	=147	=147	=147	=147	=147
2A\	.	.	.	.	16cc\LL	.	.	16ee\LL	-to-	-to-
.	.	.	.	.	16dd\	.	.	16ff\	.	.
.	.	.	.	.	16cc\	.	.	16ee\	.	.
!	!	!	!	!	!	!	!	!LO:SIC:v:t=custos cc	!	!
.	.	.	.	.	16b\JJ	.	.	16dd\JJ	.	.
!	!	!	!	!	!	!	!	!LO:LB:g=original	!	!
.	.	.	.	.	16a\LL	.	.	16cc\LL	.	.
.	.	.	.	.	16cc\	.	.	16ee\	.	.
.	.	.	.	.	16b\	.	.	16dd\	.	.
.	.	.	.	.	16a\JJ	.	.	16cc\JJ	.	.
2E\	#	.	.	.	8g#X/	.	.	8b\	.	.
.	.	.	.	.	8g#/	-ris	-ris	8b\	-ris,	-ris,
.	.	.	.	.	4r	.	.	4r	.	.
=148	=148	=148	=148	=148	=148	=148	=148	=148	=148	=148
(4E\	.	2r	.	.	8g#X\	sed	sed	8b\	sed	sed
.	.	.	.	.	8g#\	ut	ut	8b\	ut	ut
4D\)	.	.	.	.	8a\	con-	con-	8cc\	con-	con-
.	.	.	.	.	8b\	-ver-	-ver-	8dd\	-ver-	-ver-
4C/	.	8C/	sed	sed	8cc\	-ta-	-ta-	8ee\	-ta-	-ta-
.	.	8C/	ut	ut	8cc\	-tur	-tur	8ee\	-tur,	-tur
!	!	!	!	!	!LO:SIC:v:t=custos a	!	!	!	!	!
8D/L	.	8D/	con-	con-	4r	.	.	4r	.	.
8E/J	.	8E\	-ver-	-ver-	.	.	.	.	.	.
!	!	!	!	!	!LO:LB:g=original	!	!	!	!	!
=149	=149	=149	=149	=149	=149	=149	=149	=149	=149	=149
*	*	*	*	*	*	*ij	*ij	*	*ij	*ij
4F\	.	8F\	-ta-	-ta-	8a\	sed	sed	8cc\	sed	sed
.	.	8F\	-tur	-tur	8a\	con-	con-	8cc\	ut	ut
4E\	.	8E\	con-	con-	8b\	-ver-	-ver-	8dd\	con-	con-
.	.	8E\	-ver-	-ver-	8cc\	-ta-	-ta-	8ee\	-ver-	-ver-
4D/	.	4D/	-ta-	-ta-	4dd\	.	.	4ff\	-ta-	-ta-
4GG/	.	8GG/	-tur	-tur	8dd\	-tur	-tur	8ff\	-tur	-tur
*	*	*	*	*	*	*Xij	*Xij	*	*Xij	*Xij
.	.	8GG/	et	et	8dd\	et	et	8ee\	et	et
=150	=150	=150	=150	=150	=150	=150	=150	=150	=150	=150
2AA/	.	8AA/L	vi-	vi-	(4.dd\	vi-	vi-	2ee\	vi-	vi-
.	.	8GG/J	.	.	.	.	.	.	.	.
.	.	4AA/	.	.	.	.	.	.	.	.
.	.	.	.	.	8cc#X\)	.	.	.	.	.
!	!	!LO:LB:g=original	!	!	!	!	!	!	!	!
2DD/	.	4D/	vat	vat	4dd\	-vat,	-vat	4dd\	-vat	-vat
.	.	4r	.	.	4r	.	.	8a\	con-	con-
!	!	!	!	!	!	!	!	!LO:SIC:v:t=custos b	!	!
.	.	.	.	.	.	.	.	8a\	-ver-	-ver-
!	!	!	!	!	!	!	!	!LO:LB:g=original	!	!
=151	=151	=151	=151	=151	=151	=151	=151	=151	=151	=151
2D/	6	2r	.	.	4r	.	.	4b\	-ta-	-ta-
.	.	.	.	.	8f#X/	con-	con-	4b\	-tur	-tur
.	.	.	.	.	8f#/	-ver-	-ver-	.	.	.
4E\	.	4r	.	.	4g/	-ta-	-ta-	4r	.	.
!LO:SIC:v:t=custos D	!	!	!	!	!	!	!	!	!	!
4C/	.	8r	.	.	8g/	-tur	-tur	8r	.	.
.	.	8C/	et	et	8g/	et	et	8ee\	et	et
!LO:LB:g=original	!	!	!	!	!	!	!	!	!	!
=152	=152	=152	=152	=152	=152	=152	=152	=152	=152	=152
2D/	.	2D/	vi-	vi-	4.g/	vi-	vi-	2a\	vi-	vi-
.	.	.	.	.	8f#X/	.	.	.	.	.
!	!	!	!	!	!LO:SIC:s=4g;	!	!	!LO:SIC:s=4b;	!	!
4GG;</	.	4GG;/	-vat	-vat	4g;;/	-vat.	-vat.	4b\	-vat.	-vat.
!LO:TX:b:t=Ad arma fideles ab initio\net claude.:mod=	!	!LO:TX:b:t=Ad arma fideles. repete\nab initio et claude.:mod=	!	!	!LO:TX:b:t=Ad arma fideles.\nrepete ab ini\ntio et claude.:mod=	!	!	!LO:TX:b:t=Ad arma fideles. repete\nab intio et claude.:mod=	!	!
!	!	!	!	!	!	!	!	!LO:SIC:s=4r	!	!
4r	.	4r	.	.	4r	.	.	4r;	.	.
==	==	==	==	==	==	==	==	==	==	==
*-	*-	*-	*-	*-	*-	*-	*-	*-	*-	*-
!!!system-decoration: [(g1)]s4
!!!RDF**kern: > = above
!!!RDF**kern: < = below
!!!RDF**kern: @ = marked note, color=grey
!!!ENC: Berenika Jozajtis
!!!END: 2022-01-22
!!!EED: Andrzej Borzym
!!!EST: 2022-01-31
!!!YEC: Copyright 2022 Narodowy Instytut Fryderyka Chopina (https://polishscores.org)
!!!YEM: License CC-BY-4.0 (https://creativecommons.org/licenses/by/4.0)
!!!ENC-modern: Andrzej Borzym
!!!END-modern: 2022-11-08
